figures/semi-variance.svg

<?xml version="1.0" encoding="UTF-8" standalone="no"?>
<!-- Created with Inkscape (http://www.inkscape.org/) -->

<svg
   xmlns:dc="http://purl.org/dc/elements/1.1/"
   xmlns:cc="http://creativecommons.org/ns#"
   xmlns:rdf="http://www.w3.org/1999/02/22-rdf-syntax-ns#"
   xmlns:svg="http://www.w3.org/2000/svg"
   xmlns="http://www.w3.org/2000/svg"
   xmlns:sodipodi="http://sodipodi.sourceforge.net/DTD/sodipodi-0.dtd"
   xmlns:inkscape="http://www.inkscape.org/namespaces/inkscape"
   width="648.1"
   height="418.8"
   version="1.1"
   viewBox="0 0 171.48 110.81"
   id="svg899"
   sodipodi:docname="semi-variance.svg"
   inkscape:version="0.92.3 (2405546, 2018-03-11)">
  <sodipodi:namedview
     pagecolor="#ffffff"
     bordercolor="#666666"
     borderopacity="1"
     objecttolerance="10"
     gridtolerance="10"
     guidetolerance="10"
     inkscape:pageopacity="0"
     inkscape:pageshadow="2"
     inkscape:window-width="1920"
     inkscape:window-height="990"
     id="namedview901"
     showgrid="false"
     inkscape:zoom="1.8290354"
     inkscape:cx="331.47415"
     inkscape:cy="187.53054"
     inkscape:window-x="-11"
     inkscape:window-y="-11"
     inkscape:window-maximized="1"
     inkscape:current-layer="svg899" />
  <defs
     id="defs839">
    <marker
       id="marker5988"
       overflow="visible"
       orient="auto">
      <path
         transform="matrix(-.8 0 0 -.8 -10 0)"
         d="m0 0 5-5-17.5 5 17.5 5z"
         fill-rule="evenodd"
         stroke="#000"
         stroke-width="1pt"
         id="path815" />
    </marker>
    <marker
       id="marker5906"
       overflow="visible"
       orient="auto">
      <path
         transform="matrix(.8 0 0 .8 10 0)"
         d="m0 0 5-5-17.5 5 17.5 5z"
         fill-rule="evenodd"
         stroke="#000"
         stroke-width="1pt"
         id="path818" />
    </marker>
    <marker
       id="marker5824"
       overflow="visible"
       orient="auto">
      <path
         transform="matrix(-.8 0 0 -.8 -10 0)"
         d="m0 0 5-5-17.5 5 17.5 5z"
         fill-rule="evenodd"
         stroke="#000"
         stroke-width="1pt"
         id="path821" />
    </marker>
    <marker
       id="marker5754"
       overflow="visible"
       orient="auto">
      <path
         transform="matrix(.8 0 0 .8 10 0)"
         d="m0 0 5-5-17.5 5 17.5 5z"
         fill-rule="evenodd"
         stroke="#000"
         stroke-width="1pt"
         id="path824" />
    </marker>
    <marker
       id="marker5658"
       overflow="visible"
       orient="auto">
      <path
         transform="matrix(.8 0 0 .8 10 0)"
         d="m0 0 5-5-17.5 5 17.5 5z"
         fill-rule="evenodd"
         stroke="#000"
         stroke-width="1pt"
         id="path827" />
    </marker>
    <marker
       id="marker5606"
       overflow="visible"
       orient="auto">
      <path
         transform="matrix(-.8 0 0 -.8 -10 0)"
         d="m0 0 5-5-17.5 5 17.5 5z"
         fill-rule="evenodd"
         stroke="#000"
         stroke-width="1pt"
         id="path830" />
    </marker>
    <marker
       id="marker5042"
       overflow="visible"
       orient="auto">
      <path
         transform="matrix(-.8 0 0 -.8 -10 0)"
         d="m0 0 5-5-17.5 5 17.5 5z"
         fill-rule="evenodd"
         stroke="#000"
         stroke-width="1pt"
         id="path833" />
    </marker>
    <marker
       id="marker5002"
       overflow="visible"
       orient="auto">
      <path
         transform="matrix(.8 0 0 .8 10 0)"
         d="m0 0 5-5-17.5 5 17.5 5z"
         fill-rule="evenodd"
         stroke="#000"
         stroke-width="1pt"
         id="path836" />
    </marker>
  </defs>
  <metadata
     id="metadata841">
    <rdf:RDF>
      <cc:Work
         rdf:about="">
        <dc:format>image/svg+xml</dc:format>
        <dc:type
           rdf:resource="http://purl.org/dc/dcmitype/StillImage" />
        <dc:title />
      </cc:Work>
    </rdf:RDF>
  </metadata>
  <path
     style="fill:none;stroke:#000000;stroke-width:0.33715999"
     inkscape:connector-curvature="0"
     id="path843"
     d="M 171.48,103.8 H 10.77 V 0" />
  <path
     style="fill:none;stroke:#000000;stroke-width:0.3743px"
     inkscape:connector-curvature="0"
     id="path845"
     d="M 10.524,80.632 C 13.8248,63.682 17.119,46.766 31.378,37.943 45.637,29.1204 70.859,28.4074 96.079,27.694" />
  <path
     style="fill:none;stroke:#000000;stroke-width:0.3743px"
     inkscape:connector-curvature="0"
     id="path847"
     d="m 96.079,27.692 59.889,-0.26737" />
  <path
     style="fill:none;stroke:#000000;stroke-width:0.26458001;marker-start:url(#marker5002);marker-end:url(#marker5042)"
     inkscape:connector-curvature="0"
     id="path849"
     d="m 140.99638,27.898019 0.25719,75.376001" />
  <path
     style="fill:none;stroke:#000000;stroke-width:0.21493px"
     inkscape:connector-curvature="0"
     id="path851"
     d="M 85.13,79.372 H 97.96" />
  <path
     style="fill:none;stroke:#000000;stroke-width:0.26458001;marker-start:url(#marker5658);marker-end:url(#marker5606)"
     inkscape:connector-curvature="0"
     id="path853"
     d="M 91.263,27.422 V 79.37" />
  <path
     style="fill:none;stroke:#000000;stroke-width:0.26458001;marker-start:url(#marker5754);marker-end:url(#marker5824)"
     inkscape:connector-curvature="0"
     id="path855"
     d="m 91.263,79.372 v 24.425" />
  <path
     style="fill:none;stroke:#000000;stroke-width:0.3743px"
     inkscape:connector-curvature="0"
     id="path857"
     d="M 91.263,16.822 V 27.421" />
  <path
     style="fill:none;stroke:#000000;stroke-width:0.26458001;marker-start:url(#marker5906);marker-end:url(#marker5988)"
     inkscape:connector-curvature="0"
     id="path859"
     d="M 11.139,21.852 H 91.262" />
  <text
     id="text865"
     xml:space="preserve"
     style="font-size:6.48789978px;line-height:1.25;font-family:'Times New Roman';letter-spacing:0px;word-spacing:0px;fill:#000000;stroke-width:0.3743"
     font-size="6.4879px"
     y="110.732"
     x="7.9101157"><tspan
       style="font-size:6.48789978px;stroke-width:0.3743"
       id="tspan863"
       font-size="6.4879px"
       y="110.732"
       x="7.9101157">0</tspan></text>
  <text
     x="148.40732"
     y="109.91716"
     font-size="3.8806px"
     style="font-size:3.88059998px;line-height:1.25;font-family:'Times New Roman';letter-spacing:0px;word-spacing:0px;fill:#000000;stroke-width:0.26458001"
     xml:space="preserve"
     id="text869"><tspan
       x="148.40732"
       y="109.91716"
       font-size="6.35px"
       id="tspan867"
       style="font-size:6.3499999px;stroke-width:0.26458001">距离 u</tspan></text>
  <text
     x="-6.3772383"
     y="13.723725"
     font-size="6.35px"
     style="font-size:6.3499999px;line-height:1.25;font-family:'Times New Roman';letter-spacing:0px;word-spacing:0px;writing-mode:tb-rl;fill:#000000;stroke-width:0.26458001"
     xml:space="preserve"
     id="text879"><tspan
       x="4.7547698"
       y="2.5917175"
       id="tspan873">变差函数 V<tspan
   baseline-shift="sub"
   font-size="4.2333px"
   id="tspan871"
   style="font-size:4.23330021px;baseline-shift:sub">T</tspan>(u) </tspan><tspan
       x="4.7547698"
       y="-12.408282"
       id="tspan875" /><tspan
       x="4.7547698"
       y="-27.408281"
       id="tspan877" /></text>
  <g
     style="font-family:'Times New Roman';letter-spacing:0px;word-spacing:0px;fill:#000000;stroke-width:0.26458001"
     id="g893">
    <text
       x="27.367367"
       y="18.126457"
       font-size="3.8806px"
       style="font-size:3.88059998px;line-height:1.25"
       xml:space="preserve"
       id="text883"><tspan
         x="27.367367"
         y="18.126457"
         font-size="6.35px"
         id="tspan881"
         style="font-size:6.3499999px;stroke-width:0.26458001">自相关阈值（变程）</tspan></text>
    <text
       x="94.571541"
       y="93.532707"
       font-size="3.8806px"
       style="font-size:3.88059998px;line-height:1.25"
       xml:space="preserve"
       id="text887"><tspan
         x="94.571541"
         y="93.532707"
         font-size="6.35px"
         id="tspan885"
         style="font-size:6.3499999px;stroke-width:0.26458001">块金效应</tspan></text>
    <text
       x="93.777794"
       y="59.136875"
       font-size="6.35px"
       style="font-size:6.3499999px;line-height:1.25"
       xml:space="preserve"
       id="text891"><tspan
         x="93.777794"
         y="59.136875"
         id="tspan889"
         style="stroke-width:0.26458001">空间效应</tspan></text>
  </g>
  <text
     xml:space="preserve"
     style="font-style:normal;font-variant:normal;font-weight:normal;font-stretch:normal;font-size:6.35014343px;line-height:1.25;font-family:'Times New Roman';-inkscape-font-specification:'Times New Roman, ';letter-spacing:0px;word-spacing:0px;writing-mode:tb-rl;fill:#000000;fill-opacity:1;stroke:none;stroke-width:0.26458931"
     x="147.69829"
     y="43.832153"
     id="text945"><tspan
       sodipodi:role="line"
       id="tspan943"
       x="64.807938"
       y="126.7225"
       style="writing-mode:tb-rl;stroke-width:0.26458931">变差函数基台值</tspan></text>
</svg>

<?xml version="1.0" encoding="UTF-8"?>
<!-- Created with Inkscape (http://www.inkscape.org/) -->
<svg width="648.1" height="418.8" version="1.1" viewBox="0 0 171.48 110.81" xmlns="http://www.w3.org/2000/svg" xmlns:cc="http://creativecommons.org/ns#" xmlns:dc="http://purl.org/dc/elements/1.1/" xmlns:rdf="http://www.w3.org/1999/02/22-rdf-syntax-ns#">
 <defs>
  <marker id="marker5988" overflow="visible" orient="auto">
   <path transform="matrix(-.8 0 0 -.8 -10 0)" d="m0 0 5-5-17.5 5 17.5 5z" fill-rule="evenodd" stroke="#000" stroke-width="1pt"/>
  </marker>
  <marker id="marker5906" overflow="visible" orient="auto">
   <path transform="matrix(.8 0 0 .8 10 0)" d="m0 0 5-5-17.5 5 17.5 5z" fill-rule="evenodd" stroke="#000" stroke-width="1pt"/>
  </marker>
  <marker id="marker5824" overflow="visible" orient="auto">
   <path transform="matrix(-.8 0 0 -.8 -10 0)" d="m0 0 5-5-17.5 5 17.5 5z" fill-rule="evenodd" stroke="#000" stroke-width="1pt"/>
  </marker>
  <marker id="marker5754" overflow="visible" orient="auto">
   <path transform="matrix(.8 0 0 .8 10 0)" d="m0 0 5-5-17.5 5 17.5 5z" fill-rule="evenodd" stroke="#000" stroke-width="1pt"/>
  </marker>
  <marker id="marker5658" overflow="visible" orient="auto">
   <path transform="matrix(.8 0 0 .8 10 0)" d="m0 0 5-5-17.5 5 17.5 5z" fill-rule="evenodd" stroke="#000" stroke-width="1pt"/>
  </marker>
  <marker id="marker5606" overflow="visible" orient="auto">
   <path transform="matrix(-.8 0 0 -.8 -10 0)" d="m0 0 5-5-17.5 5 17.5 5z" fill-rule="evenodd" stroke="#000" stroke-width="1pt"/>
  </marker>
  <marker id="marker5042" overflow="visible" orient="auto">
   <path transform="matrix(-.8 0 0 -.8 -10 0)" d="m0 0 5-5-17.5 5 17.5 5z" fill-rule="evenodd" stroke="#000" stroke-width="1pt"/>
  </marker>
  <marker id="marker5002" overflow="visible" orient="auto">
   <path transform="matrix(.8 0 0 .8 10 0)" d="m0 0 5-5-17.5 5 17.5 5z" fill-rule="evenodd" stroke="#000" stroke-width="1pt"/>
  </marker>
 </defs>
 <metadata>
  <rdf:RDF>
   <cc:Work rdf:about="">
    <dc:format>image/svg+xml</dc:format>
    <dc:type rdf:resource="http://purl.org/dc/dcmitype/StillImage"/>
    <dc:title/>
   </cc:Work>
  </rdf:RDF>
 </metadata>
 <g fill="none" stroke="#000">
  <path d="m171.48 103.8h-160.71v-103.8" stroke-width=".33716"/>
  <path d="m10.524 80.632c3.3008-16.95 6.595-33.866 20.854-42.689 14.259-8.8226 39.481-9.5356 64.701-10.249" stroke-width=".3743px"/>
  <path d="m96.079 27.692 59.889-0.26737" stroke-width=".3743px"/>
  <path d="m150.11 28.332 0.25719 75.376" marker-end="url(#marker5042)" marker-start="url(#marker5002)" stroke-width=".26458"/>
  <path d="m85.13 79.372h12.83" stroke-width=".21493px"/>
  <path d="m91.263 27.422v51.948" marker-end="url(#marker5606)" marker-start="url(#marker5658)" stroke-width=".26458"/>
  <path d="m91.263 79.372v24.425" marker-end="url(#marker5824)" marker-start="url(#marker5754)" stroke-width=".26458"/>
  <path d="m91.263 16.822v10.599" stroke-width=".3743px"/>
  <path d="m11.139 21.852h80.123" marker-end="url(#marker5988)" marker-start="url(#marker5906)" stroke-width=".26458"/>
 </g>
 <g fill="#000000" font-family="'Times New Roman'" letter-spacing="0px" word-spacing="0px">
  <text x="7.9101157" y="110.732" font-size="6.4879px" stroke-width=".3743" style="line-height:1.25" xml:space="preserve"><tspan x="7.9101157" y="110.732" font-size="6.4879px" stroke-width=".3743">0</tspan></text>
  <g stroke-width=".26458">
   <text x="134.23058" y="109.91716" font-size="3.8806px" style="line-height:1.25" xml:space="preserve"><tspan x="134.23058" y="109.91716" font-size="6.35px" stroke-width=".26458">距离 u</tspan></text>
   <text x="3.0256991" y="14.157707" font-size="6.35px" writing-mode="tb-rl" style="line-height:1.25" xml:space="preserve"><tspan x="14.157707" y="3.0256991">变差函数 V<tspan baseline-shift="sub" font-size="4.2333px">T</tspan>(u) </tspan><tspan x="14.157707" y="-11.9743"/><tspan x="14.157707" y="-26.9743"/></text>
   <g>
    <text x="27.367367" y="18.126457" font-size="3.8806px" style="line-height:1.25" xml:space="preserve"><tspan x="27.367367" y="18.126457" font-size="6.35px" stroke-width=".26458">自相关阈值（变程）</tspan></text>
    <text x="94.571541" y="93.532707" font-size="3.8806px" style="line-height:1.25" xml:space="preserve"><tspan x="94.571541" y="93.532707" font-size="6.35px" stroke-width=".26458">块金效应</tspan></text>
    <text x="93.777794" y="59.136875" font-size="6.35px" style="line-height:1.25" xml:space="preserve"><tspan x="93.777794" y="59.136875" stroke-width=".26458">空间效应</tspan></text>
   </g>
  </g>
 </g>
</svg>
